X: 13
T:Peacock's Feather, The
M:4/4
L:1/8
R:Hornpipe
K:D
AG[|:FEDF A2FA|defd B2ef|gefd ecdB|AGFG E2AG|!
FEDF A2FA|defd B2ef|gefd ecdB|1Adfe d2AG:|2Adfe d2fg|!
|:afge fdec|defd B2ef|gefd ecdB|AGFG E2AG|!
FEDF A2FA|defd B2ef|gefd ecdB|1Adfe d2fg:|2Adfe d2AG|]!
